X:124
T:Recovery. JC.124
R:Country-dance
S:John Clare,Poet,Helpston. (1793-1864)
O:England
A:Northamptonshire
Z:vmp.P. Headford
S:Chris Partington <ChrisTheFiddlerPartington@Hotmail.com> tradtunes 2010-11023
M:2/4
L:1/8
Q:1/4=90
K:D
[|\
Ad Ad | e/d/e/f/ e2 | ag ec | d/c/d/e/ d2 |\
Ad Ad | e/d/e/f/ e2 | ag ec | d2 d2 ||
ag ec | df AA | GG G/F/G/A/ | G3 F | ag ec |\
df AA | G>F G/F/G/E/ | D2 D2 ||
ff/f/ ff | f3 g | fe dc | d/c/d/e/ f2 |\
ee/e/ ee | e3 f | ed cB | A2 A2 |]
